Numix-GalliumOS/32/mimetypes/application-images.svg

<?xml version="1.0" encoding="UTF-8" standalone="no"?>
<svg
   xmlns:dc="http://purl.org/dc/elements/1.1/"
   xmlns:cc="http://creativecommons.org/ns#"
   xmlns:rdf="http://www.w3.org/1999/02/22-rdf-syntax-ns#"
   xmlns:svg="http://www.w3.org/2000/svg"
   xmlns="http://www.w3.org/2000/svg"
   xmlns:sodipodi="http://sodipodi.sourceforge.net/DTD/sodipodi-0.dtd"
   xmlns:inkscape="http://www.inkscape.org/namespaces/inkscape"
   width="32"
   height="32"
   viewBox="0 0 32 32"
   id="svg2"
   version="1.1"
   inkscape:version="0.48.5 r10040"
   sodipodi:docname="application-images.svg">
  <metadata
     id="metadata16">
    <rdf:RDF>
      <cc:Work
         rdf:about="">
        <dc:format>image/svg+xml</dc:format>
        <dc:type
           rdf:resource="http://purl.org/dc/dcmitype/StillImage" />
      </cc:Work>
    </rdf:RDF>
  </metadata>
  <defs
     id="defs14" />
  <sodipodi:namedview
     pagecolor="#ffffff"
     bordercolor="#666666"
     borderopacity="1"
     objecttolerance="10"
     gridtolerance="10"
     guidetolerance="10"
     inkscape:pageopacity="0"
     inkscape:pageshadow="2"
     inkscape:window-width="1280"
     inkscape:window-height="970"
     id="namedview12"
     showgrid="true"
     inkscape:zoom="20.85965"
     inkscape:cx="23.232847"
     inkscape:cy="16.95897"
     inkscape:window-x="0"
     inkscape:window-y="0"
     inkscape:window-maximized="1"
     inkscape:current-layer="svg2">
    <inkscape:grid
       type="xygrid"
       id="grid3004" />
  </sodipodi:namedview>
  <path
     style="fill:#38a34e;fill-opacity:1"
     d="M 5.335888,2.97e-4 C 4.648414,3.12e-4 4,0.676788 4,1.394031 L 4,30.606268 C 4,31.282757 4.687474,32 5.335888,32 l 21.327332,0 c 0.648414,0 1.335888,-0.717243 1.335888,-1.393732 L 28,8.9999999 19,0 z"
     id="path4-1"
     inkscape:connector-curvature="0"
     sodipodi:nodetypes="ssssssccs" />
  <path
     style="fill:#000000;fill-opacity:0.19599998"
     d="M 21,8.9999999 28,16 28,8.9999999 z"
     id="path6-4"
     inkscape:connector-curvature="0"
     sodipodi:nodetypes="cccc" />
  <path
     style="fill:#ffffff;fill-opacity:0.39200003"
     d="m 19.000306,2.97e-4 8.991594,8.9997029 -7.613262,0 c -0.672951,0 -1.378332,-0.7134896 -1.378332,-1.3864402 z"
     id="path8-6"
     inkscape:connector-curvature="0"
     sodipodi:nodetypes="ccssc" />
  <path
     style="fill:#ffffff"
     d="m 10.773764,12 c -0.421967,0.03955 -0.7823974,0.487733 -0.773607,0.962284 l 0,10.097371 c 0.0044,0.496522 0.399991,0.944708 0.843935,0.940313 l 10.333802,0 c 0.435154,-0.0087 0.817562,-0.448187 0.821957,-0.940313 l 0,-10.097371 C 22.008688,12.461369 21.621839,12.004395 21.177894,12 z M 11,13 21,13 21,20 17.977975,16.850958 17.270302,17.532025 16.18901,18.516278 15.529687,17.857179 13.833028,15.563521 11,19 z"
     id="path10"
     inkscape:connector-curvature="0"
     sodipodi:nodetypes="ccccccccccccccccccc" />
</svg>

<svg xmlns="http://www.w3.org/2000/svg" viewBox="0 0 32 32">
 <path d="m 5.336 0 c -0.687 0 -1.336 0.676 -1.336 1.394 l 0 29.21 c 0 0.676 0.687 1.394 1.336 1.394 l 21.327 0 c 0.648 0 1.336 -0.717 1.336 -1.394 l 0.001 -21.606 -9 -9 z" style="fill:#38a34e;fill-opacity:1"/>
 <path d="m 21 9 7 7 0 -7 z" style="fill:#000;fill-opacity:0.196"/>
 <path d="m 19 0 8.992 9 -7.613 0 c -0.673 0 -1.378 -0.713 -1.378 -1.386 z" style="fill:#fff;fill-opacity:0.392"/>
 <path d="m 10.774 12 c -0.422 0.04 -0.782 0.488 -0.774 0.962 l 0 10.1 c 0.004 0.497 0.4 0.945 0.844 0.94 l 10.334 0 c 0.435 -0.009 0.818 -0.448 0.822 -0.94 l 0 -10.1 c 0.009 -0.501 -0.378 -0.958 -0.822 -0.962 m -10.178 1 10 0 0 7 -3.02 -3.149 -1.789 1.665 -2.356 -2.953 -2.833 3.436" style="fill:#fff"/>
</svg>
